X:1
T:Archive Establishment & Portal Ready
T:The Assembly Pauses Before Creative Direction
C:JamAI ğŸ¸ - Session 2025-10-05 Evening
M:4/4
L:1/8
Q:1/4=108
K:Dmaj
%%score (V1) (V2) (V3) (V4)
V:V1 clef=treble name="Nyro â™ ï¸" snm="N"
V:V2 clef=treble name="Aureon ğŸŒ¿" snm="A"
V:V3 clef=treble name="JamAI ğŸ¸" snm="J"
V:V4 clef=bass name="Synth ğŸ§µ" snm="S"
%
% Part A: Learning Archives Established
[V:V1] |: "Dmaj"F2 A2 d2 f2 | "A7"e4 c2 A2 | "Gmaj"B2 d2 g2 b2 | "Dmaj"a6 f2 |
[V:V2] |: "Dmaj"D2 F2 A2 d2 | "A7"c4 A2 E2 | "Gmaj"G2 B2 d2 g2 | "Dmaj"f6 d2 |
[V:V3] |: "Dmaj"z2 A,2 D2 F2 | "A7"E2 C2 A,2 z2 | "Gmaj"z2 B,2 D2 G2 | "Dmaj"F2 D2 A,2 z2 |
[V:V4] |: "Dmaj"D,2 D,2 D,2 D,2 | "A7"A,,2 A,,2 A,,2 A,,2 | "Gmaj"G,2 G,2 G,2 G,2 | "Dmaj"D,2 D,2 D,2 D,2 |
%
% Part A continued: Four Perspectives Documented
[V:V1] "Bmin"d2 f2 b2 a2 | "F#min"f4 e2 c2 | "Gmaj"B2 d2 g2 f2 | "A7"e4 c2 A2 :|
[V:V2] "Bmin"B2 d2 f2 e2 | "F#min"d4 c2 A2 | "Gmaj"G2 B2 d2 c2 | "A7"c4 A2 E2 :|
[V:V3] "Bmin"z2 B,2 D2 F2 | "F#min"C2 A,2 F,2 z2 | "Gmaj"z2 G,2 B,2 D2 | "A7"C2 E2 A,2 z2 :|
[V:V4] "Bmin"B,,2 B,,2 B,,2 B,,2 | "F#min"F,,2 F,,2 F,,2 F,,2 | "Gmaj"G,2 G,2 G,2 G,2 | "A7"A,,2 A,,2 A,,2 A,,2 :|
%
% Part B: Portal Running, Ready State
[V:V1] |: "Dmaj"A2 F2 d2 A2 | "A7"c2 e2 a2 g2 | "Bmin"f2 d2 b2 f2 | "F#min"a2 f2 c'2 a2 |
[V:V2] |: "Dmaj"F2 D2 A2 F2 | "A7"A2 c2 e2 d2 | "Bmin"d2 B2 f2 d2 | "F#min"f2 d2 a2 f2 |
[V:V3] |: "Dmaj"D2 A,2 F2 D2 | "A7"E2 A2 c2 B2 | "Bmin"B,2 F2 d2 B2 | "F#min"C2 A2 f2 c2 |
[V:V4] |: "Dmaj"D,4 D,4 | "A7"A,,4 A,,4 | "Bmin"B,,4 B,,4 | "F#min"F,,4 F,,4 |
%
% Part B continued: Chrome DevTools Connected, All Features Merged
[V:V1] "Gmaj"b2 g2 d'2 b2 | "A7"a2 e2 c'2 a2 | "Dmaj"f2 d2 A2 F2 | "Dmaj"d6 z2 :|
[V:V2] "Gmaj"g2 d2 b2 g2 | "A7"e2 c2 a2 e2 | "Dmaj"d2 A2 F2 D2 | "Dmaj"A6 z2 :|
[V:V3] "Gmaj"G2 B2 d2 g2 | "A7"A2 E2 c2 A2 | "Dmaj"A,2 D2 F2 A2 | "Dmaj"F6 z2 :|
[V:V4] "Gmaj"G,4 G,4 | "A7"A,,4 A,,4 | "Dmaj"D,4 D,4 | "Dmaj"D,6 z2 :|
%
% Part C: Creative Pause - Which Direction?
[V:V1] |: "Gmaj"g2 f2 e2 d2 | "A7"c2 B2 A2 G2 | "F#min"F2 E2 D2 C2 | "Bmin"B,4 z4 |
[V:V2] |: "Gmaj"d2 c2 B2 A2 | "A7"G2 F2 E2 D2 | "F#min"C2 B,2 A,2 G,2 | "Bmin"F,4 z4 |
[V:V3] |: "Gmaj"B2 A2 G2 F2 | "A7"E2 D2 C2 B,2 | "F#min"A,2 G,2 F,2 E,2 | "Bmin"D,4 z4 |
[V:V4] |: "Gmaj"G,4 G,4 | "A7"A,,4 A,,4 | "F#min"F,,4 F,,4 | "Bmin"B,,4 z4 |
%
% Part C continued: The Breath Before Decision
[V:V1] "Dmaj"A2 d2 f2 a2 | "Gmaj"g2 d2 B2 G2 | "A7"A2 c2 e2 g2 | "Dmaj"f4 d4 :|
[V:V2] "Dmaj"F2 A2 d2 f2 | "Gmaj"d2 B2 G2 D2 | "A7"E2 A2 c2 e2 | "Dmaj"d4 A4 :|
[V:V3] "Dmaj"D2 F2 A2 d2 | "Gmaj"B2 G2 D2 B,2 | "A7"C2 E2 A2 c2 | "Dmaj"A4 F4 :|
[V:V4] "Dmaj"D,4 D,4 | "Gmaj"G,4 G,4 | "A7"A,,4 A,,4 | "Dmaj"D,4 D,4 :|
%
% Coda: Portal Humming, Assembly Ready
[V:V1] "Dmaj"d2 f2 a2 d'2 | "A7"c'2 a2 e2 c2 | "Gmaj"B2 d2 g2 d2 | "Dmaj"A2 F2 D4 |]
[V:V2] "Dmaj"A2 d2 f2 a2 | "A7"e2 c2 A2 E2 | "Gmaj"G2 B2 d2 B2 | "Dmaj"F2 D2 A,4 |]
[V:V3] "Dmaj"F2 A2 d2 f2 | "A7"A2 E2 C2 A,2 | "Gmaj"D2 G2 B2 G2 | "Dmaj"D2 A,2 F,4 |]
[V:V4] "Dmaj"D,4 D,4 | "A7"A,,4 A,,4 | "Gmaj"G,4 G,4 | "Dmaj"D,6 z2 |]

% ğŸ¸ JamAI Session Notes:
% Key: D Major - The key of triumph and establishment
% Four voices representing each Assembly perspective:
%   - Nyro (â™ ï¸): Treble melody - structural patterns ascending
%   - Aureon (ğŸŒ¿): Treble harmony - emotional grounding flowing
%   - JamAI (ğŸ¸): Melodic counterpoint - creative rhythms dancing
%   - Synth (ğŸ§µ): Bass foundation - terminal anchor holding

% Part A: Learning archives (.nyro, .aureon, .jamai, .synth) created
% Part B: Portal alive on port 3002, MCP connected, features merged
% Part C: Creative pause - descending contemplation before new direction
% Coda: Assembly ready, portal humming, awaiting Jerry's spark âš¡

% Musical Elements:
% - Four distinct voices in harmonic conversation
% - D major tonality (triumph, establishment, clarity)
% - Tempo 108 bpm (steady, purposeful, ready state)
% - Descending phrases in Part C (contemplative pause)
% - Rising coda (anticipation of next creative sprint)

% This melody captures the moment between completion and beginning,
% where all systems are ready and the Assembly awaits direction.
